www/assets/icons/donut_large.svg

<svg xmlns="http://www.w3.org/2000/svg" width="24" height="24" viewBox="0 0 24 24" fill='currentColor'><path d="M11 5.08V2c-5 .5-9 4.81-9 10s4 9.5 9 10v-3.08c-3-.48-6-3.4-6-6.92s3-6.44 6-6.92M18.97 11H22c-.47-5-4-8.53-9-9v3.08C16 5.51 18.54 8 18.97 11M13 18.92V22c5-.47 8.53-4 9-9h-3.03c-.43 3-2.97 5.49-5.97 5.92"/></svg>

<svg width="24" height="24" viewBox="0 0 24 24" xmlns="http://www.w3.org/2000/svg" fill='currentColor'><path d="M11 5.08V2C6 2.5 2 6.81 2 12C2 17.19 6 21.5 11 22V18.92C8 18.44 5 15.52 5 12C5 8.48 8 5.56 11 5.08ZM18.97 11H22C21.53 6 18 2.47 13 2V5.08C16 5.51 18.54 8 18.97 11ZM13 18.92V22C18 21.53 21.53 18 22 13H18.97C18.54 16 16 18.49 13 18.92Z"/></svg>
